X:8
T:Britches                                                                                          
R:As Played by Martin Hayes                                                                         
M:2/4                                                                                               
L:1/8                                                                                               
K:G                                                                                                 
G>A BG|AG BG|G>A BG|AG ED|G>A Bc|de dB|G>A GE|ED D2:|                                               
d>e dB|AG AB|d>e dB|AG E2|d>e dB|AG AB|G>A GE|ED D2|                                                
d>e dB|AG AB|d>e dB|AG E2|d>e ge|dB AG|G>A GE|ED D2||                                               
|:g>a bg|ag bg|g>a bg|ag ed| gb eg|de BA|G>A GE|ED D2:|                                             
|:d e>dB|d e>dB|d e>dB|GA GE| e>d Bd|e>d BA|G>A GE|ED D2|                                           
e2 dB|de dB|de dB|GA GE|gb eg|de BA|1 G>A GE|ED D2 :|2 G>A GE|ED EG ||
